Sources/FrostedUI/Resources/Icons.xcassets/dollarCircleFilled32.imageset/dollar-circle-filled-32.svg

<svg width="32" height="32" viewBox="0 0 32 32" fill="none" xmlns="http://www.w3.org/2000/svg" data-fui-icon="true">
  <path
    d="M16 1C24.2843 1 31 7.71573 31 16C31 24.2843 24.2843 31 16 31C7.71573 31 1 24.2843 1 16C1 7.71573 7.71573 1 16 1ZM16.0117 6C15.5977 6.00023 15.2617 6.33593 15.2617 6.75V7.62598C11.8464 7.91346 10.0283 10.1475 10.0283 12.1719C10.0284 13.008 10.2205 13.7196 10.5928 14.3125C10.9628 14.9016 11.4801 15.3255 12.0527 15.6396C12.9863 16.1514 14.1567 16.4104 15.2617 16.6191V22.8652C13.9926 22.7399 13.1548 22.3041 12.5977 21.8262C11.924 21.2481 11.603 20.5603 11.4639 20.1357C11.335 19.7423 10.9111 19.5277 10.5176 19.6562C10.124 19.7851 9.90925 20.2089 10.0381 20.6025C10.2347 21.2027 10.6805 22.1577 11.6211 22.9648C12.4527 23.6782 13.6297 24.2403 15.2617 24.373V25.2471C15.2619 25.661 15.5978 25.9968 16.0117 25.9971C16.4257 25.9969 16.7616 25.6611 16.7617 25.2471V24.3711C20.179 24.0847 21.9967 21.8505 21.9971 19.8262C21.9971 18.9901 21.8037 18.2785 21.4316 17.6855C21.0616 17.0961 20.5445 16.6716 19.9717 16.3574C19.0377 15.8453 17.8671 15.5848 16.7617 15.376V9.12891C19.5297 9.38678 20.3772 11.056 20.5127 11.6904C20.5994 12.0953 20.9984 12.354 21.4033 12.2676C21.8079 12.1809 22.0666 11.7817 21.9805 11.377C21.7082 10.1019 20.303 7.8964 16.7617 7.62207V6.75C16.7617 6.33587 16.4258 6.00013 16.0117 6ZM16.7617 16.9023C17.7368 17.0952 18.5899 17.311 19.25 17.6729C19.658 17.8967 19.959 18.1613 20.1611 18.4834C20.3611 18.8022 20.4971 19.2277 20.4971 19.8262C20.4967 20.8857 19.4715 22.5969 16.7617 22.8652V16.9023ZM15.2617 15.0928C14.2871 14.9001 13.4343 14.6859 12.7744 14.3242C12.3664 14.1005 12.0655 13.8365 11.8633 13.5146C11.6631 13.1959 11.5284 12.7705 11.5283 12.1719C11.5283 11.1134 12.5529 9.40022 15.2617 9.13086V15.0928Z"
    fill="currentColor"
  />
</svg>

<svg xmlns="http://www.w3.org/2000/svg" width="32" height="32" fill="none" data-fui-icon="true" viewBox="0 0 32 32"><path fill="currentColor" d="M16 1c8.284 0 15 6.716 15 15s-6.716 15-15 15S1 24.284 1 16 7.716 1 16 1m.012 5a.75.75 0 0 0-.75.75v.876c-3.416.287-5.234 2.522-5.234 4.546 0 .836.192 1.548.565 2.14.37.59.887 1.014 1.46 1.328.933.511 2.104.77 3.209.98v6.245c-1.27-.125-2.107-.56-2.664-1.039a3.83 3.83 0 0 1-1.134-1.69.75.75 0 0 0-1.426.466 5.33 5.33 0 0 0 1.583 2.363c.832.713 2.009 1.275 3.64 1.408v.874a.75.75 0 0 0 1.5 0v-.876c3.418-.286 5.236-2.52 5.236-4.545 0-.836-.193-1.547-.565-2.14-.37-.59-.887-1.014-1.46-1.329-.934-.512-2.105-.772-3.21-.981V9.129c2.768.258 3.615 1.927 3.75 2.561a.751.751 0 0 0 1.468-.313c-.272-1.275-1.677-3.48-5.218-3.755V6.75a.75.75 0 0 0-.75-.75m.75 10.902c.975.193 1.828.409 2.488.77.408.225.709.49.911.811.2.32.336.745.336 1.343 0 1.06-1.026 2.77-3.735 3.04zm-1.5-1.81c-.975-.192-1.828-.406-2.488-.768-.408-.223-.708-.488-.91-.81-.2-.318-.336-.743-.336-1.342 0-1.059 1.025-2.772 3.734-3.041z"/></svg>
